dealnox/img/sprite/icon-facebook.svg

<svg width="40" height="40" viewBox="0 0 40 40" fill="none" xmlns="http://www.w3.org/2000/svg">
<g clip-path="url(#clip0_666_621)">
<path d="M40 20C40 8.9543 31.0457 0 20 0C8.9543 0 0 8.9543 0 20C0 29.9824 7.31367 38.2566 16.875 39.757V25.7813H11.7969V20H16.875V15.5938C16.875 10.5813 19.8609 7.8125 24.4293 7.8125C26.6168 7.8125 28.9062 8.20312 28.9062 8.20312V13.125H26.3844C23.9 13.125 23.125 14.6668 23.125 16.25V20H28.6719L27.7852 25.7813H23.125V39.757C32.6863 38.2566 40 29.9824 40 20Z" fill="#968E8E"/>
</g>
<defs>
<clipPath id="clip0_666_621">
<rect width="40" height="40" fill="white"/>
</clipPath>
</defs>
</svg>

<svg width="40" height="40" fill="none" xmlns="http://www.w3.org/2000/svg"><g clip-path="url(#clip0_666_621)"><path d="M40 20C40 8.954 31.046 0 20 0S0 8.954 0 20c0 9.982 7.314 18.257 16.875 19.757V25.781h-5.078V20h5.078v-4.406c0-5.013 2.986-7.781 7.554-7.781 2.188 0 4.477.39 4.477.39v4.922h-2.522c-2.484 0-3.259 1.542-3.259 3.125V20h5.547l-.887 5.781h-4.66v13.976C32.686 38.257 40 29.982 40 20z" fill="#968E8E"/></g><defs><clipPath id="clip0_666_621"><path fill="#fff" d="M0 0h40v40H0z"/></clipPath></defs></svg>
